images/sponsors/SparkPost.svg

<?xml version="1.0" encoding="UTF-8" standalone="no"?>
<svg width="145px" height="38px" viewBox="0 0 145 38" version="1.1" xmlns="http://www.w3.org/2000/svg" xmlns:xlink="http://www.w3.org/1999/xlink">
    <!-- Generator: Sketch 42 (36781) - http://www.bohemiancoding.com/sketch -->
    <title>SparkPost</title>
    <desc>Created with Sketch.</desc>
    <defs></defs>
    <g id="Page-1" stroke="none" stroke-width="1" fill="none" fill-rule="evenodd">
        <g id="SparkPost" fill="#616161">
            <g id="Group">
                <path d="M0,33.8240946 L2.27273642,31.1011871 C3.84760563,32.4000604 5.49628773,33.2245473 7.49419517,33.2245473 C9.06877264,33.2245473 10.017837,32.6002012 10.017837,31.5758652 L10.017837,31.5259759 C10.017837,30.5515292 9.41799799,30.0517606 6.49524145,29.3025453 C2.97264588,28.4030785 0.699617706,27.4286318 0.699617706,23.9562173 L0.699617706,23.906328 C0.699617706,20.7335412 3.24747485,18.6346881 6.82025151,18.6346881 C9.36810865,18.6346881 11.5410664,19.4340845 13.315493,20.8581187 L11.3167103,23.7563682 C9.76780684,22.6821429 8.24370221,22.0324145 6.77036217,22.0324145 C5.29614688,22.0324145 4.5215493,22.7072334 4.5215493,23.5565191 L4.5215493,23.6064085 C4.5215493,24.7556137 5.27105634,25.1305131 8.29359155,25.9048189 C11.8421529,26.8290845 13.8397686,28.1034507 13.8397686,31.1510765 L13.8397686,31.2009658 C13.8397686,34.6739638 11.1921328,36.6222736 7.42009054,36.6222736 C4.77070423,36.6222736 2.09826962,35.698008 0,33.8240946" id="Fill-1"></path>
                <path d="M23.0952616,27.7037525 C25.0190644,27.7037525 26.1425956,26.5542555 26.1425956,25.0552414 L26.1425956,25.0053521 C26.1425956,23.2813984 24.9443763,22.3574245 23.0205734,22.3574245 L20.0479276,22.3574245 L20.0479276,27.7037525 L23.0952616,27.7037525 Z M16.2003219,18.8844266 L23.3452918,18.8844266 C27.5170322,18.8844266 30.0400905,21.3578873 30.0400905,24.930664 L30.0400905,24.9805533 C30.0400905,29.0274245 26.8921026,31.1262777 22.9706841,31.1262777 L20.0479276,31.1262777 L20.0479276,36.3725352 L16.2003219,36.3725352 L16.2003219,18.8844266 L16.2003219,18.8844266 Z" id="Fill-2"></path>
                <path d="M39.5333602,29.0525151 L37.2089839,23.3814688 L34.8860664,29.0525151 L39.5333602,29.0525151 Z M35.4853219,18.7598491 L39.033008,18.7598491 L46.5280785,36.3725352 L42.5057143,36.3725352 L40.9069215,32.4499497 L33.512505,32.4499497 L31.9137123,36.3725352 L27.9902515,36.3725352 L35.4853219,18.7598491 L35.4853219,18.7598491 Z" id="Fill-3"></path>
                <path d="M56.0931187,27.3787425 C57.9661569,27.3787425 59.040674,26.379497 59.040674,24.9055734 L59.040674,24.8553924 C59.040674,23.2067103 57.8914688,22.3574245 56.0172636,22.3574245 L52.1956237,22.3574245 L52.1956237,27.3787425 L56.0931187,27.3787425 Z M48.3480181,18.8844266 L56.3422736,18.8844266 C58.5662877,18.8844266 60.2896579,19.5093561 61.4388632,20.6582696 C62.4130181,21.6327163 62.938169,23.0068612 62.938169,24.6555433 L62.938169,24.7057243 C62.938169,27.5287022 61.4140644,29.3025453 59.1903421,30.1270322 L63.4624447,36.3725352 L58.9659859,36.3725352 L55.2178672,30.7764688 L52.1956237,30.7764688 L52.1956237,36.3725352 L48.3480181,36.3725352 L48.3480181,18.8844266 L48.3480181,18.8844266 Z" id="Fill-4"></path>
                <path d="M89.4877565,28.6528169 C92.7352314,28.6528169 94.9332797,26.9542455 94.9332797,24.3559155 L94.9332797,24.3060262 C94.9332797,21.5329376 92.7851207,20.0835211 89.6371328,20.0835211 L84.6910865,20.0835211 L84.6910865,28.6528169 L89.4877565,28.6528169 Z M83.3922133,18.8844266 L89.7369115,18.8844266 C93.5845171,18.8844266 96.2330282,20.8581187 96.2330282,24.2307545 L96.2330282,24.2812274 C96.2330282,27.9534909 93.0602414,29.8519115 89.4127767,29.8519115 L84.6910865,29.8519115 L84.6910865,36.3725352 L83.3922133,36.3725352 L83.3922133,18.8844266 L83.3922133,18.8844266 Z" id="Fill-5"></path>
                <path d="M117.040091,33.8240946 L117.889376,32.8496479 C119.813179,34.6234909 121.58673,35.4479779 124.159386,35.4479779 C126.783099,35.4479779 128.582032,33.9740543 128.582032,31.9755634 L128.582032,31.925674 C128.582032,30.0765594 127.607294,29.0026258 123.635111,28.2032294 C119.43828,27.3539437 117.738833,25.9299095 117.738833,23.2813984 L117.738833,23.2315091 C117.738833,20.6334708 120.112223,18.6346881 123.35999,18.6346881 C125.908722,18.6346881 127.582495,19.3345976 129.35663,20.75834 L128.531268,21.7826761 C126.882586,20.3586419 125.233903,19.8089839 123.310101,19.8089839 C120.737153,19.8089839 119.038581,21.2829074 119.038581,23.1069316 L119.038581,23.1568209 C119.038581,25.0053521 119.987646,26.1297586 124.134588,26.9790443 C128.182334,27.8035312 129.880905,29.2523642 129.880905,31.8005131 L129.880905,31.8504024 C129.880905,34.6739638 127.457626,36.6222736 124.084698,36.6222736 C121.286519,36.6222736 119.13836,35.698008 117.040091,33.8240946" id="Fill-6"></path>
                <polyline id="Fill-7" points="137.372767 20.0835211 131.276348 20.0835211 131.276348 18.8844266 144.767183 18.8844266 144.767183 20.0835211 138.67164 20.0835211 138.67164 36.3725352 137.372767 36.3725352 137.372767 20.0835211"></polyline>
                <polyline id="Fill-8" points="69.4135714 26.2417907 75.4679779 18.8844266 80.163994 18.8844266 73.0619115 27.1914386 80.6754326 36.372827 75.7285111 36.372827 69.4135714 28.5655835 69.4135714 36.372827 65.566841 36.372827 65.566841 18.8847183 69.4135714 18.8847183 69.4135714 26.2417907"></polyline>
                <path d="M106.829406,34.1540644 C103.446268,34.1540644 100.703229,31.4113179 100.703229,28.0278873 C100.703229,24.6444567 103.446268,21.9017103 106.829406,21.9017103 C110.212837,21.9017103 112.955584,24.6444567 112.955584,28.0278873 C112.955584,31.4113179 110.212837,34.1540644 106.829406,34.1540644 Z M113.044276,14.8991147 C111.096258,16.368662 110.719316,18.9620322 110.661841,20.7148692 C107.582998,17.1543461 116.363813,6.67904427 106.385946,0.205100604 C112.562304,8.19818913 97.5975453,16.0564889 97.5975453,27.831831 C97.5975453,32.4476157 100.481791,36.515493 106.816861,37.9275654 C113.031147,36.6044769 116.097445,32.4476157 116.097445,27.831831 C116.097445,20.9497284 111.812797,18.6472334 113.044276,14.8991147 L113.044276,14.8991147 Z" id="Fill-9"></path>
            </g>
        </g>
    </g>
</svg>

<svg width="145" height="59" viewBox="0 0 145 59" xmlns="http://www.w3.org/2000/svg"><title>Artboard</title><g fill-rule="nonzero" fill="#616161"><path d="M0 33.824L2.273 31.1c1.575 1.3 3.223 2.125 5.22 2.125 1.576 0 2.525-.625 2.525-1.65v-.05c0-.973-.6-1.473-3.523-2.222C2.973 28.403.7 27.43.7 23.956v-.05c0-3.172 2.547-5.27 6.12-5.27 2.548 0 4.72.798 6.495 2.222l-1.998 2.898c-1.55-1.074-3.073-1.724-4.547-1.724-1.474 0-2.248.675-2.248 1.525v.05c0 1.15.75 1.524 3.772 2.298 3.548.924 5.546 2.198 5.546 5.246v.05c0 3.474-2.648 5.422-6.42 5.422-2.65 0-5.322-.924-7.42-2.798M23.095 27.704c1.924 0 3.048-1.15 3.048-2.65v-.05c0-1.723-1.2-2.647-3.122-2.647H20.05v5.347h3.047zm-6.895-8.82h7.145c4.172 0 6.695 2.474 6.695 6.047v.05c0 4.047-3.148 6.146-7.07 6.146H20.05v5.247H16.2v-17.49zM39.533 29.053L37.21 23.38l-2.324 5.673h4.647zM35.485 18.76h3.548l7.495 17.613h-4.022l-1.6-3.923h-7.393l-1.6 3.923H27.99l7.495-17.613zM56.093 27.38c1.873 0 2.948-1 2.948-2.474v-.05c0-1.65-1.15-2.5-3.023-2.5h-3.82v5.023h3.896zm-7.745-8.496h7.994c2.224 0 3.948.625 5.097 1.774.973.975 1.498 2.35 1.498 3.998v.05c0 2.823-1.524 4.597-3.748 5.42l4.272 6.247h-4.496l-3.748-5.597h-3.022v5.597h-3.848v-17.49zM89.488 28.653c3.247 0 5.445-1.7 5.445-4.297v-.05c0-2.773-2.148-4.222-5.296-4.222H84.69v8.57h4.798zm-6.096-9.77h6.345c3.848 0 6.496 1.975 6.496 5.348v.05c0 3.673-3.173 5.572-6.82 5.572H84.69v6.52h-1.298V18.885zM117.04 33.824l.85-.974c1.923 1.773 3.697 2.598 6.27 2.598 2.623 0 4.422-1.474 4.422-3.472v-.05c0-1.85-.975-2.923-4.947-3.723-4.197-.85-5.896-2.273-5.896-4.922v-.048c0-2.6 2.372-4.597 5.62-4.597 2.55 0 4.222.7 5.997 2.123l-.826 1.025c-1.647-1.424-3.296-1.974-5.22-1.974-2.573 0-4.27 1.473-4.27 3.297v.05c0 1.848.948 2.973 5.095 3.822 4.047.824 5.746 2.272 5.746 4.82v.05c0 2.824-2.422 4.772-5.795 4.772-2.798 0-4.947-.924-7.045-2.798M137.373 20.084h-6.097v-1.2h13.49v1.2h-6.094v16.29h-1.3v-16.29M69.414 26.242l6.054-7.358h4.696l-7.102 8.307 7.613 9.183H75.73l-6.316-7.807v7.807h-3.847V18.885h3.847v7.357M106.83 34.154a6.126 6.126 0 1 1 0-12.253 6.126 6.126 0 0 1 0 12.254zm6.214-19.255c-1.948 1.47-2.325 4.062-2.382 5.815-3.08-3.56 5.702-14.036-4.276-20.51 6.176 7.993-8.788 15.85-8.788 27.627 0 4.616 2.884 8.683 9.22 10.096 6.213-1.324 9.28-5.48 9.28-10.096 0-6.882-4.285-9.185-3.054-12.933z"/></g></svg>
